X:1
T:Title
L:1/8
M:4/4
I:linebreak $
K:A
V:1 treble nm="Voice" snm="Voice"
V:1
 (3efg | a2 A2 A2 cA | E2 [Fe]2 AB A2 | d2 B2 Bc BA | G2 [Ag]2 Bc de | a2 e2 ce A[ce] |$ %6
[K:treble+8] E2 [Fe]2 AB A2 | e^d [Fe]2 f2 g2 | af ec A2 AA || A,2 A,A, C2 CC | A2 AB cB A2 |$ %11
[K:treble] E2 EE G2 GG | e2 [Fe]2 f2 gf | A,2 A,A, C2 CC | A2 AB cB A2 | E2 EE G2 GG | af ec A2 |] %17
